icons/1_Primary/GitHub.svg

<svg width="1024" height="1024" fill="none" xmlns="http://www.w3.org/2000/svg"><g clip-path="url(#a)"><path d="M512 1024c282.77 0 512-229.23 512-512S794.77 0 512 0 0 229.23 0 512s229.23 512 512 512Z" fill="#56595B"/><path d="M511.9 262.2c-141.5 0-256.1 114.7-256.1 256.1 0 113.2 73.4 209.2 175.1 243 12.8 2.4 17.5-5.5 17.5-12.3 0-6.1-.2-22.2-.3-43.5-71.2 15.5-86.3-34.4-86.3-34.4-11.7-29.6-28.5-37.5-28.5-37.5-23.2-15.9 1.8-15.6 1.8-15.6 25.7 1.8 39.2 26.4 39.2 26.4 22.8 39.2 60 27.9 74.6 21.3 2.3-16.6 8.9-27.9 16.2-34.3-56.9-6.4-116.7-28.4-116.7-126.6 0-28 9.9-50.8 26.4-68.7-2.9-6.5-11.5-32.5 2.2-67.8 0 0 21.5-6.9 70.4 26.3 20.5-5.7 42.3-8.5 64-8.6 21.8.1 43.5 2.9 64 8.6 48.7-33.1 70.1-26.3 70.1-26.3 13.8 35.3 5.1 61.3 2.6 67.8 16.3 17.9 26.3 40.8 26.3 68.7 0 98.4-59.9 120.1-116.9 126.4 9 7.7 17.3 23.4 17.3 47.4 0 34.3-.3 61.8-.3 70.1 0 6.7 4.5 14.7 17.6 12.2C694.7 727.4 768 631.4 768 518.3c0-141.4-114.7-256.1-256.1-256.1Z" fill="#fff"/></g><defs><clipPath id="a"><path fill="#fff" d="M0 0h1024v1024H0z"/></clipPath></defs></svg>

<svg width="1024" height="1024" viewBox="0 0 1024 1024" fill="none" xmlns="http://www.w3.org/2000/svg">
<g clip-path="url(#clip0_2_2283)">
<path d="M512 1024C794.77 1024 1024 794.77 1024 512C1024 229.23 794.77 0 512 0C229.23 0 0 229.23 0 512C0 794.77 229.23 1024 512 1024Z" fill="#56595B"/>
<path d="M511.9 262.2C370.4 262.2 255.8 376.9 255.8 518.3C255.8 631.5 329.2 727.5 430.9 761.3C443.7 763.7 448.4 755.8 448.4 749C448.4 742.9 448.2 726.8 448.1 705.5C376.9 721 361.8 671.1 361.8 671.1C350.1 641.5 333.3 633.6 333.3 633.6C310.1 617.7 335.1 618 335.1 618C360.8 619.8 374.3 644.4 374.3 644.4C397.1 683.6 434.3 672.3 448.9 665.7C451.2 649.1 457.8 637.8 465.1 631.4C408.2 625 348.4 603 348.4 504.8C348.4 476.8 358.3 454 374.8 436.1C371.9 429.6 363.3 403.6 377 368.3C377 368.3 398.5 361.4 447.4 394.6C467.9 388.9 489.7 386.1 511.4 386C533.2 386.1 554.9 388.9 575.4 394.6C624.1 361.5 645.5 368.3 645.5 368.3C659.3 403.6 650.6 429.6 648.1 436.1C664.4 454 674.4 476.9 674.4 504.8C674.4 603.2 614.5 624.9 557.5 631.2C566.5 638.9 574.8 654.6 574.8 678.6C574.8 712.9 574.5 740.4 574.5 748.7C574.5 755.4 579 763.4 592.1 760.9C694.7 727.4 768 631.4 768 518.3C768 376.9 653.3 262.2 511.9 262.2Z" fill="white"/>
</g>
<defs>
<clipPath id="clip0_2_2283">
<rect width="1024" height="1024" fill="white"/>
</clipPath>
</defs>
</svg>
